src/assets/STROKESTROU.svg

<svg width="123" height="38" viewBox="0 0 123 38" fill="none" xmlns="http://www.w3.org/2000/svg">
<path d="M55.0071 12.1916V13.8725H56.2699V11.5297C55.8331 11.7187 55.411 11.9399 55.0071 12.1916V12.1916Z" fill="black"/>
<path d="M55.8609 8.03721H54.2496V11.8084C53.5606 12.2173 52.9306 12.7184 52.3771 13.2977L52.4816 8.07205H50.7397V6.19952H55.8783L55.8609 8.03721Z" fill="white"/>
<path d="M60.5117 10.772V11.8868H61.8181V10.9026C61.3857 10.8324 60.9494 10.7887 60.5117 10.772V10.772ZM57.8988 11.8781H59.1966V10.8155C58.7567 10.854 58.3201 10.9239 57.8901 11.0245L57.8988 11.8781Z" fill="black"/>
<path d="M62.0531 10.441V10.8504C61.4622 10.7302 60.8618 10.6631 60.2589 10.65V8.03721H58.43V10.7545C57.8135 10.8409 57.2068 10.9867 56.6184 11.19V10.4933V3.43863L58.3603 4.01345L58.4474 6.19081H60.2851V4.81472H62.027L62.0531 10.441Z" fill="white"/>
<path d="M62.1489 10.9636V11.9739H64.9185C64.0518 11.4989 63.1179 11.1582 62.1489 10.9636V10.9636Z" fill="black"/>
<path d="M67.5401 10.8243L67.4094 13.0539H66.6169C65.5012 12.1695 64.2437 11.4804 62.8979 11.0159V6.15601H67.3746V7.76725H64.6311V8.47271H67.244V10.0665H64.6311V10.8243H67.5401Z" fill="white"/>
<path d="M37.3358 16.2415L35.951 10.5368H20.7356V16.2415H26.2312L26.0745 37.7451H31.6833L31.8837 16.2415H37.3358Z" fill="white"/>
<path d="M48.4924 22.8171C49.3608 22.2912 50.0523 21.5178 50.4782 20.5962C50.9208 19.5323 51.1316 18.3862 51.0965 17.2344C51.0965 15.057 50.9746 10.4846 43.7719 10.4846H35.5415V30.1766H40.7672V24.1671H43.441L46.3151 30.1766H52.2723L48.4924 22.8171ZM45.2699 18.7934C44.7285 19.1369 44.088 19.2902 43.4497 19.2289H40.7497V15.4315H43.4932C44.1048 15.38 44.7166 15.5298 45.2351 15.8583C45.427 16.0433 45.5739 16.2698 45.6645 16.5204C45.7551 16.7711 45.787 17.0392 45.7577 17.3041C45.7894 17.5728 45.7622 17.8453 45.6779 18.1025C45.5937 18.3597 45.4545 18.5954 45.2699 18.7934Z" fill="#FDFDFB"/>
<path d="M80.6043 18.1227L84.2709 11.0158L78.9146 8.9517L75.0477 17.2692V7.44497L69.4736 5.28503V37.6667H75.0825V24.7071L76.9028 22.6429L80.9701 30.2201H87.3192L80.6043 18.1227Z" fill="white"/>
<path d="M101.219 25.3167H91.4997V22.9129H97.6573L95.9154 17.905H91.5084V15.6928H100.07V10.65H86.0215V30.3246H105.182H107.56L106.506 25.308L101.219 25.3167Z" fill="#FDFDFD"/>
<path fill-rule="evenodd" clip-rule="evenodd" d="M68.8247 25.7427C69.6952 24.227 70.1531 22.5095 70.1528 20.7617C70.1524 18.9559 69.6621 17.1841 68.7342 15.635C67.8063 14.0859 66.4755 12.8176 64.8836 11.9651C64.0169 11.4901 63.0831 11.1495 62.114 10.9549L61.7831 10.8939C61.3507 10.8236 60.9144 10.78 60.4767 10.7632H60.1196C59.7937 10.7631 59.4681 10.7805 59.1441 10.8155C58.7042 10.854 58.2677 10.9239 57.8377 11.0245C57.3029 11.1521 56.7787 11.321 56.27 11.5297C55.8332 11.7186 55.4111 11.9399 55.0072 12.1916C53.5087 13.0914 52.2723 14.3683 51.4212 15.895C50.5702 17.4217 50.1342 19.1448 50.1568 20.8926C50.1794 22.6403 50.6598 24.3516 51.55 25.8557C52.4403 27.3599 53.7093 28.6044 55.2305 29.4652C56.7517 30.326 58.472 30.7729 60.2199 30.7615C61.9677 30.7501 63.682 30.2806 65.1918 29.4C66.7017 28.5194 67.9543 27.2584 68.8247 25.7427ZM62.4885 20.4917C62.4885 21.7375 61.4786 22.7474 60.2328 22.7474C58.987 22.7474 57.9771 21.7375 57.9771 20.4917C57.9771 19.2459 58.987 18.236 60.2328 18.236C61.4786 18.236 62.4885 19.2459 62.4885 20.4917Z" fill="black"/>
<path d="M70.1528 20.7617L70.4028 20.7616L70.4028 20.7616L70.1528 20.7617ZM68.8247 25.7427L69.0415 25.8672L69.0415 25.8672L68.8247 25.7427ZM68.7342 15.635L68.9487 15.5066L68.9487 15.5066L68.7342 15.635ZM64.8836 11.9651L64.7635 12.1844L64.7656 12.1855L64.8836 11.9651ZM62.114 10.9549L62.1633 10.7097L62.1593 10.709L62.114 10.9549ZM61.7831 10.8939L61.8284 10.648L61.8232 10.6471L61.7831 10.8939ZM60.4767 10.7632L60.4863 10.5132H60.4767V10.7632ZM60.1196 10.7632L60.1194 11.0132H60.1196V10.7632ZM59.1441 10.8155L59.1659 11.0646L59.171 11.0641L59.1441 10.8155ZM57.8377 11.0245L57.7807 10.7811L57.7797 10.7813L57.8377 11.0245ZM56.27 11.5297L56.1751 11.2983L56.1708 11.3002L56.27 11.5297ZM55.0072 12.1916L55.1359 12.4059L55.1394 12.4038L55.0072 12.1916ZM51.4212 15.895L51.6396 16.0168L51.6396 16.0168L51.4212 15.895ZM50.1568 20.8926L49.9069 20.8958L50.1568 20.8926ZM51.55 25.8557L51.3349 25.9831L51.3349 25.9831L51.55 25.8557ZM60.2199 30.7615L60.2182 30.5115L60.2182 30.5115L60.2199 30.7615ZM65.1918 29.4L65.3178 29.616L65.3178 29.616L65.1918 29.4ZM69.9028 20.7617C69.9031 22.4659 69.4567 24.1404 68.6079 25.6182L69.0415 25.8672C69.9338 24.3136 70.4031 22.5532 70.4028 20.7616L69.9028 20.7617ZM68.5198 15.7635C69.4244 17.2738 69.9024 19.0012 69.9028 20.7617L70.4028 20.7616C70.4024 18.9106 69.8998 17.0945 68.9487 15.5066L68.5198 15.7635ZM64.7656 12.1855C66.3176 13.0166 67.6151 14.2532 68.5198 15.7635L68.9487 15.5066C67.9975 13.9187 66.6334 12.6186 65.0017 11.7448L64.7656 12.1855ZM62.0648 11.2C63.009 11.3896 63.9189 11.7215 64.7635 12.1844L65.0038 11.7459C64.1149 11.2587 63.1571 10.9094 62.1633 10.7098L62.0648 11.2ZM61.7378 11.1398L62.0688 11.2007L62.1593 10.709L61.8284 10.648L61.7378 11.1398ZM60.4671 11.0131C60.8946 11.0294 61.3207 11.0721 61.743 11.1407L61.8232 10.6471C61.3807 10.5752 60.9342 10.5306 60.4862 10.5134L60.4671 11.0131ZM60.1196 11.0132H60.4767V10.5132H60.1196V11.0132ZM59.171 11.0641C59.486 11.03 59.8026 11.0131 60.1194 11.0132L60.1197 10.5132C59.7849 10.5131 59.4502 10.531 59.1173 10.567L59.171 11.0641ZM57.8947 11.2679C58.3131 11.17 58.7379 11.102 59.1659 11.0646L59.1223 10.5665C58.6706 10.606 58.2223 10.6777 57.7807 10.7811L57.8947 11.2679ZM56.3649 11.761C56.8616 11.5572 57.3734 11.3922 57.8957 11.2677L57.7797 10.7813C57.2323 10.9119 56.6958 11.0847 56.1751 11.2984L56.3649 11.761ZM55.1394 12.4038C55.5328 12.1586 55.9439 11.9432 56.3693 11.7591L56.1708 11.3002C55.7226 11.4941 55.2894 11.7211 54.8749 11.9794L55.1394 12.4038ZM51.6396 16.0168C52.4694 14.5282 53.6749 13.2832 55.1359 12.4059L54.8785 11.9773C53.3425 12.8996 52.0752 14.2084 51.2029 15.7733L51.6396 16.0168ZM50.4068 20.8893C50.3848 19.1853 50.8098 17.5053 51.6396 16.0168L51.2029 15.7733C50.3306 17.3382 49.8837 19.1044 49.9069 20.8958L50.4068 20.8893ZM51.7652 25.7284C50.8972 24.2618 50.4289 22.5934 50.4068 20.8893L49.9069 20.8958C49.93 22.6872 50.4224 24.4413 51.3349 25.9831L51.7652 25.7284ZM55.3536 29.2476C53.8704 28.4084 52.6332 27.195 51.7652 25.7284L51.3349 25.9831C52.2474 27.5249 53.5481 28.8005 55.1074 29.6828L55.3536 29.2476ZM60.2182 30.5115C58.5141 30.5227 56.8368 30.0869 55.3536 29.2476L55.1074 29.6828C56.6667 30.5651 58.43 31.0232 60.2215 31.0115L60.2182 30.5115ZM65.0659 29.1841C63.5938 30.0427 61.9224 30.5004 60.2182 30.5115L60.2215 31.0115C62.0131 30.9998 63.7702 30.5186 65.3178 29.616L65.0659 29.1841ZM68.6079 25.6182C67.7592 27.096 66.538 28.3255 65.0659 29.1841L65.3178 29.616C66.8654 28.7133 68.1493 27.4208 69.0415 25.8672L68.6079 25.6182ZM60.2328 22.9974C61.6167 22.9974 62.7385 21.8756 62.7385 20.4917H62.2385C62.2385 21.5994 61.3405 22.4974 60.2328 22.4974V22.9974ZM57.7271 20.4917C57.7271 21.8756 58.8489 22.9974 60.2328 22.9974V22.4974C59.1251 22.4974 58.2271 21.5994 58.2271 20.4917H57.7271ZM60.2328 17.986C58.8489 17.986 57.7271 19.1078 57.7271 20.4917H58.2271C58.2271 19.384 59.1251 18.486 60.2328 18.486V17.986ZM62.7385 20.4917C62.7385 19.1078 61.6167 17.986 60.2328 17.986V18.486C61.3405 18.486 62.2385 19.384 62.2385 20.4917H62.7385Z" fill="#020202"/>
<path d="M16.1544 10.711C15.9957 9.88266 15.5595 9.13312 14.9177 8.58591C14.2101 8.11818 13.3689 7.89488 12.5226 7.95012C11.6936 7.90363 10.8657 8.05904 10.1101 8.40301C9.85177 8.51493 9.63177 8.69981 9.47706 8.93498C9.32235 9.17014 9.23965 9.44535 9.23912 9.72685C9.22463 9.904 9.25174 10.0821 9.31827 10.2469C9.3848 10.4117 9.48892 10.5587 9.62233 10.6762C10.051 10.9582 10.535 11.1453 11.042 11.2249L15.9889 12.2961C18.9443 12.9232 21.0578 13.9306 22.3294 15.3183C23.601 16.706 24.2397 18.6714 24.2455 21.2146C24.2455 27.4854 20.3843 30.6179 12.6619 30.6121C5.35762 30.6121 1.47031 27.2038 1 20.3872H8.73397C9.07073 22.5762 10.4004 23.6706 12.7229 23.6706C15.2312 23.6706 16.4854 22.9652 16.4854 21.5717C16.4939 21.3693 16.4522 21.168 16.3641 20.9856C16.2759 20.8033 16.1441 20.6456 15.9802 20.5265C15.4932 20.2161 14.9479 20.0086 14.3777 19.9169L10.4323 19.1243C7.41885 18.5437 5.18633 17.4986 3.73476 15.9889C2.99535 15.1851 2.42352 14.2419 2.05267 13.2146C1.68181 12.1873 1.51937 11.0964 1.57482 10.0055C1.51531 8.74567 1.75405 7.48953 2.27164 6.33934C2.78923 5.18915 3.57103 4.17739 4.55345 3.38638C6.55081 1.80127 9.30879 1.00581 12.8274 1C16.1021 1 18.6627 1.7403 20.483 3.22961C22.3033 4.71892 23.3571 6.93983 23.6445 9.88361L16.1544 10.711Z" fill="white" stroke="black" stroke-miterlimit="10"/>
<path d="M113.909 10.7633C113.749 9.93301 113.313 9.18113 112.672 8.62946C111.961 8.16165 111.117 7.93843 110.268 7.99367C109.445 7.95372 108.625 8.1089 107.873 8.44656C107.614 8.55755 107.394 8.74221 107.239 8.97758C107.084 9.21295 107.002 9.48865 107.002 9.77039C106.989 9.94741 107.017 10.1251 107.083 10.2897C107.15 10.4543 107.253 10.6014 107.386 10.7197C107.816 11.0001 108.299 11.1897 108.805 11.2771L113.752 12.3397C116.708 12.9668 118.821 13.9741 120.093 15.3618C121.364 16.7495 122 18.715 122 21.2581C122 27.5289 118.139 30.6643 110.416 30.6643C103.083 30.6643 99.1812 27.2531 98.7109 20.4307H106.445C106.776 22.6197 108.111 23.7142 110.451 23.7142C112.96 23.7142 114.214 23.0145 114.214 21.6152C114.222 21.4211 114.184 21.2279 114.104 21.051C114.024 20.874 113.903 20.7183 113.752 20.5962C113.261 20.2877 112.713 20.0804 112.141 19.9865L108.204 19.194C105.185 18.6134 102.952 17.5682 101.507 16.0586C100.766 15.2554 100.192 14.3126 99.8199 13.2853C99.4475 12.2579 99.2837 11.1666 99.338 10.0752C99.2792 8.81544 99.5183 7.55953 100.036 6.40945C100.553 5.25938 101.335 4.24753 102.317 3.45606C104.297 1.85353 107.049 1.04935 110.573 1.04355C113.857 1.04355 116.408 1.79256 118.237 3.27316C120.066 4.75376 121.112 6.98338 121.399 9.92716L113.909 10.7633Z" fill="white" stroke="#020202" stroke-miterlimit="10"/>
</svg>

<svg width="123" height="38" fill="none" xmlns="http://www.w3.org/2000/svg"><path d="M55.007 12.192v1.68h1.263V11.53c-.437.189-.859.41-1.263.662z" fill="#000"/><path d="M55.86 8.037h-1.61v3.771a8.805 8.805 0 00-1.873 1.49l.105-5.226H50.74V6.2h5.138l-.017 1.837z" fill="#fff"/><path d="M60.512 10.772v1.115h1.306v-.984c-.432-.07-.869-.114-1.306-.131zm-2.613 1.106h1.298v-1.063c-.44.039-.877.109-1.307.21l.009.853z" fill="#000"/><path d="M62.053 10.441v.41c-.59-.12-1.191-.188-1.794-.201V8.037H58.43v2.717a9.647 9.647 0 00-1.812.436V3.439l1.742.574.087 2.178h1.838V4.815h1.742l.026 5.626z" fill="#fff"/><path d="M62.149 10.964v1.01h2.77a9.762 9.762 0 00-2.77-1.01z" fill="#000"/><path d="M67.54 10.824l-.13 2.23h-.793a12.61 12.61 0 00-3.72-2.038v-4.86h4.478v1.611H64.63v.706h2.613v1.593h-2.613v.758h2.91zM37.336 16.241l-1.385-5.704H20.736v5.704h5.495l-.157 21.504h5.61l.2-21.503h5.452z" fill="#fff"/><path d="M48.492 22.817a5.095 5.095 0 001.986-2.22 8.11 8.11 0 00.618-3.363c0-2.177-.121-6.75-7.324-6.75h-8.23v19.693h5.225v-6.01h2.674l2.874 6.01h5.957l-3.78-7.36zm-3.222-4.024a2.883 2.883 0 01-1.82.436h-2.7v-3.797h2.743a2.814 2.814 0 011.742.426 1.743 1.743 0 01.523 1.446 1.863 1.863 0 01-.488 1.49z" fill="#FDFDFB"/><path d="M80.604 18.123l3.667-7.107-5.356-2.064-3.867 8.317V7.445l-5.574-2.16v32.382h5.608v-12.96l1.82-2.064 4.068 7.577h6.35l-6.716-12.097z" fill="#fff"/><path d="M101.219 25.317h-9.72v-2.404h6.158l-1.742-5.008h-4.407v-2.212h8.562V10.65H86.022v19.675h21.538l-1.054-5.017-5.287.009z" fill="#FDFDFD"/><path fill-rule="evenodd" clip-rule="evenodd" d="M68.825 25.743a9.981 9.981 0 00-3.941-13.778 9.761 9.761 0 00-2.77-1.01l-.33-.061c-.433-.07-.87-.114-1.307-.13h-.357c-.326 0-.652.017-.976.052a9.29 9.29 0 00-1.306.208 10.63 10.63 0 00-1.568.506 9.57 9.57 0 00-1.263.662 9.998 9.998 0 1013.818 13.55zm-6.337-5.251a2.256 2.256 0 11-4.51 0 2.256 2.256 0 014.51 0z" fill="#000"/><path d="M70.153 20.762h.25-.25zm-1.328 4.98l.216.125-.216-.124zm-.09-10.107l.214-.128-.215.128zm-3.851-3.67l-.12.22h.002l.118-.22zm-2.77-1.01l.05-.245-.005-.001-.045.246zm-.33-.061l.044-.246h-.005l-.04.246zm-1.307-.13l.01-.25h-.01v.25zm-.357 0v.25-.25zm-.976.052l.022.249h.005l-.027-.25zm-1.306.208l-.057-.243h-.001l.058.243zm-1.568.506l-.095-.232-.004.002.099.23zm-1.263.662l.129.214.003-.002-.132-.212zm-3.586 3.703l.219.122-.219-.122zm-1.264 4.998l-.25.003.25-.003zm1.393 4.963l-.215.127.215-.127zm8.67 4.905l-.002-.25.002.25zm4.972-1.361l.126.216-.126-.216zm4.71-8.638a9.747 9.747 0 01-1.294 4.856l.433.25a10.248 10.248 0 001.362-5.106h-.5zm-1.382-4.998a9.732 9.732 0 011.383 4.998h.5c0-1.851-.503-3.668-1.454-5.255l-.43.257zm-3.754-3.579a9.731 9.731 0 013.754 3.579l.429-.257a10.231 10.231 0 00-3.947-3.762l-.236.44zm-2.701-.985a9.51 9.51 0 012.698.984l.24-.438a10.012 10.012 0 00-2.84-1.036l-.098.49zm-.327-.06l.33.06.091-.491-.33-.061-.091.492zm-1.27-.127c.427.016.853.06 1.275.128l.08-.494a10.957 10.957 0 00-1.337-.134l-.019.5zm-.348 0h.357v-.5h-.357v.5zm-.949.051c.315-.034.632-.05.948-.05v-.5c-.334 0-.669.017-1.002.053l.054.497zm-1.276.204a9.03 9.03 0 011.27-.203l-.043-.498c-.451.039-.9.11-1.341.214l.114.487zm-1.53.493a10.363 10.363 0 011.53-.493l-.115-.487a10.87 10.87 0 00-1.605.517l.19.463zm-1.226.643c.394-.245.805-.46 1.23-.645l-.198-.459a9.83 9.83 0 00-1.296.68l.264.424zm-3.5 3.613a9.748 9.748 0 013.497-3.611l-.258-.429a10.247 10.247 0 00-3.675 3.796l.437.244zm-1.232 4.872a9.748 9.748 0 011.233-4.872l-.437-.244a10.248 10.248 0 00-1.296 5.123l.5-.007zm1.358 4.84a9.749 9.749 0 01-1.358-4.84l-.5.007a10.248 10.248 0 001.428 5.087l.43-.255zm3.589 3.519a9.748 9.748 0 01-3.589-3.52l-.43.255a10.248 10.248 0 003.772 3.7l.247-.435zm4.864 1.264a9.748 9.748 0 01-4.864-1.264l-.247.435c1.56.882 3.323 1.34 5.114 1.329l-.003-.5zm4.848-1.328a9.748 9.748 0 01-4.848 1.328l.003.5a10.248 10.248 0 005.097-1.396l-.252-.432zm3.542-3.566a9.748 9.748 0 01-3.542 3.566l.252.432a10.248 10.248 0 003.724-3.749l-.434-.249zm-8.375-2.62a2.506 2.506 0 002.506-2.506h-.5a2.006 2.006 0 01-2.006 2.005v.5zm-2.506-2.506a2.506 2.506 0 002.506 2.505v-.5a2.006 2.006 0 01-2.006-2.005h-.5zm2.506-2.506a2.506 2.506 0 00-2.506 2.506h.5c0-1.108.898-2.006 2.006-2.006v-.5zm2.506 2.506a2.506 2.506 0 00-2.506-2.506v.5c1.108 0 2.006.898 2.006 2.006h.5z" fill="#020202"/><path d="M16.154 10.711a3.71 3.71 0 00-1.236-2.125 3.885 3.885 0 00-2.395-.636 5.13 5.13 0 00-2.413.453 1.446 1.446 0 00-.87 1.324 1.14 1.14 0 00.382.95c.429.281.913.468 1.42.548l4.947 1.071c2.955.627 5.069 1.635 6.34 3.022 1.272 1.388 1.91 3.353 1.916 5.897 0 6.27-3.86 9.403-11.583 9.397C5.358 30.612 1.47 27.204 1 20.387h7.734c.337 2.19 1.666 3.284 3.989 3.284 2.508 0 3.762-.706 3.762-2.1a1.229 1.229 0 00-.505-1.045 4.232 4.232 0 00-1.602-.61l-3.946-.792c-3.013-.58-5.246-1.625-6.697-3.135a8.221 8.221 0 01-2.16-5.984 8.013 8.013 0 012.978-6.619C6.551 1.801 9.31 1.006 12.827 1c3.275 0 5.836.74 7.656 2.23 1.82 1.489 2.874 3.71 3.162 6.654l-7.49.827z" fill="#fff" stroke="#000" stroke-miterlimit="10"/><path d="M113.909 10.763a3.752 3.752 0 00-1.237-2.134 3.912 3.912 0 00-2.404-.635 5.226 5.226 0 00-2.395.453 1.437 1.437 0 00-.871 1.323 1.166 1.166 0 00.384.95c.43.28.913.47 1.419.557l4.947 1.063c2.956.627 5.069 1.634 6.341 3.022 1.271 1.388 1.907 3.353 1.907 5.896 0 6.27-3.861 9.406-11.584 9.406-7.333 0-11.235-3.41-11.705-10.233h7.734c.331 2.189 1.666 3.283 4.006 3.283 2.509 0 3.763-.7 3.763-2.099a1.245 1.245 0 00-.462-1.019 4.355 4.355 0 00-1.611-.61l-3.937-.792c-3.019-.58-5.252-1.626-6.697-3.135a8.219 8.219 0 01-2.169-5.984 8.02 8.02 0 012.979-6.619c1.98-1.602 4.732-2.407 8.256-2.412 3.284 0 5.835.749 7.664 2.23 1.829 1.48 2.875 3.71 3.162 6.653l-7.49.836z" fill="#fff" stroke="#020202" stroke-miterlimit="10"/></svg>
